X: 8490
T: Crazy Mexican Dude, The
R: reel
M: 4/4
K: Amixolydian
edcA zAef|gfag fgfd|edcB BFBc|de zc cdcA|
edcA zAef|gfag fgfd|bfed fgfd|efed d2dd|
edcA zAef|gfag fgfd|edcB BFBc|de zc cdcA|
edcA zAef|gfag fgfd|bfed fgfd|efed d2z2|

